images/raw_icons/category-culture.svg

<?xml version="1.0" encoding="UTF-8"?>
<svg width="24px" height="24px" viewBox="0 0 24 24" version="1.1" xmlns="http://www.w3.org/2000/svg" xmlns:xlink="http://www.w3.org/1999/xlink">
    <title>Topic-Icons/09_a</title>
    <g id="Topic-Icons/09_a" stroke="none" stroke-width="1" fill="none" fill-rule="evenodd">
        <path d="M5.5381,11 C6.1821,11.002 6.7481,11.232 7.1341,11.646 L7.8661,10.966 C7.2901,10.346 6.4651,10.003 5.5411,10 L5.5281,10 C4.5991,10 3.7051,10.359 3.1361,10.963 L3.8641,11.649 C4.2491,11.24 4.8611,10.969 5.5381,11" id="Fill-2" fill="#000000"></path>
        <path d="M11.5381,11 C12.1821,11.002 12.7481,11.232 13.1341,11.646 L13.8661,10.966 C13.2911,10.346 12.4651,10.003 11.5411,10 L11.5281,10 C10.5991,10 9.7051,10.359 9.1361,10.963 L9.8641,11.649 C10.2491,11.24 10.9141,10.969 11.5381,11" id="Fill-4" fill="#000000"></path>
        <path d="M4.1152,17.0127 C5.1732,18.2877 6.7022,18.9937 8.4222,18.9997 L8.4442,18.9997 C10.1772,18.9997 11.8352,18.2587 12.8822,17.0157 L12.1172,16.3707 C11.2582,17.3927 9.8862,17.9997 8.4442,17.9997 L8.4262,17.9997 C7.0082,17.9947 5.7502,17.4177 4.8852,16.3737 L4.1152,17.0127 Z" id="Fill-6" fill="#000000"></path>
        <path d="M18.4717,9.0029 C19.4017,9.0029 20.2947,8.6439 20.8647,8.0399 L20.1357,7.3539 C19.7527,7.7609 19.1307,8.0029 18.4727,8.0029 L18.4627,8.0029 C17.8187,8.0009 17.2517,7.7709 16.8667,7.3569 L16.1337,8.0369 C16.7097,8.6569 17.5347,8.9999 18.4587,9.0029 L18.4717,9.0029 Z" id="Fill-8" fill="#000000"></path>
        <path d="M22,12.5 C22,16.084 19.084,19 15.5,19 C15.378,19 15.26,18.988 15.14,18.982 L15.14,18.982 C15.687,17.941 16,16.758 16,15.5 L16,14.039 C17.24,14.149 18.339,14.684 19.115,15.619 L19.885,14.98 C18.915,13.811 17.546,13.128 16,13.017 L16,6 L9,6 L9,4 L22,4 L22,12.5 Z M15,15.5 C15,19.084 12.084,22 8.5,22 C4.916,22 2,19.084 2,15.5 L2,7 L15,7 L15,15.5 Z M8,3 L8,6 L1,6 L1,15.5 C1,19.642 4.358,23 8.5,23 C10.982,23 13.176,21.789 14.541,19.932 C14.855,19.972 15.174,20 15.5,20 C19.642,20 23,16.642 23,12.5 L23,3 L8,3 Z" id="Fill-10" fill="#000000"></path>
    </g>
</svg>

<?xml version="1.0" encoding="utf-8"?>
<!-- Generator: Adobe Illustrator 19.0.0, SVG Export Plug-In . SVG Version: 6.00 Build 0)  -->
<svg version="1.1" id="Layer_1" xmlns="http://www.w3.org/2000/svg" xmlns:xlink="http://www.w3.org/1999/xlink" x="0px" y="0px"
	 viewBox="0 0 24 24" style="enable-background:new 0 0 24 24;" xml:space="preserve">
<style type="text/css">
	.st0{fill:none;}
	.st1{fill:#000000;}
</style>
<rect id="XMLID_424_" class="st0" width="24" height="24"/>
<path id="XMLID_25_" class="st1" d="M5.5,11c0.6,0,1.2,0.2,1.6,0.6L7.9,11c-0.6-0.6-1.4-1-2.3-1c0,0,0,0,0,0c-0.9,0-1.8,0.4-2.4,1
	l0.7,0.7C4.2,11.2,4.9,11,5.5,11z"/>
<path id="XMLID_38_" class="st1" d="M11.5,11c0.6,0,1.2,0.2,1.6,0.6l0.7-0.7c-0.6-0.6-1.4-1-2.3-1c0,0,0,0,0,0c-0.9,0-1.8,0.4-2.4,1
	l0.7,0.7C10.2,11.2,10.9,11,11.5,11z"/>
<path id="XMLID_40_" class="st1" d="M4.1,17c1.1,1.3,2.6,2,4.3,2c0,0,0,0,0,0c1.7,0,3.4-0.7,4.4-2l-0.8-0.6c-0.9,1-2.2,1.6-3.7,1.6
	c0,0,0,0,0,0c-1.4,0-2.7-0.6-3.5-1.6L4.1,17z"/>
<path id="XMLID_41_" class="st1" d="M18.5,9c0.9,0,1.8-0.4,2.4-1l-0.7-0.7c-0.4,0.4-1,0.6-1.7,0.6c0,0,0,0,0,0
	c-0.6,0-1.2-0.2-1.6-0.6L16.1,8C16.7,8.7,17.5,9,18.5,9C18.5,9,18.5,9,18.5,9z"/>
<path id="XMLID_48_" class="st1" d="M8,3v3H1v9.5C1,19.6,4.4,23,8.5,23c2.5,0,4.7-1.2,6-3.1c0.3,0,0.6,0.1,1,0.1
	c4.1,0,7.5-3.4,7.5-7.5V3H8z M15,15.5c0,3.6-2.9,6.5-6.5,6.5S2,19.1,2,15.5V7h13V15.5z M22,12.5c0,3.6-2.9,6.5-6.5,6.5
	c-0.1,0-0.2,0-0.4,0l0,0c0.5-1,0.9-2.2,0.9-3.5V14c1.2,0.1,2.3,0.6,3.1,1.6l0.8-0.6c-1-1.2-2.3-1.9-3.9-2V6H9V4h13V12.5z"/>
</svg>
